src/icons/svg/shopping.svg

<?xml version="1.0" encoding="UTF-8" standalone="no"?>
<svg width="128px" height="128px" viewBox="0 0 128 128" version="1.1" xmlns="http://www.w3.org/2000/svg" xmlns:xlink="http://www.w3.org/1999/xlink">
    <!-- Generator: Sketch 40 (33762) - http://www.bohemiancoding.com/sketch -->
    <title>Shape</title>
    <desc>Created with Sketch.</desc>
    <defs></defs>
    <g id="Page-1" stroke="none" stroke-width="1" fill="none" fill-rule="evenodd">
        <g id="shopping" fill="#000000">
            <path d="M42.9127913,101.360451 C44.5549726,101.360451 46.1107234,101.692159 47.5800435,102.355575 C49.0493637,103.018991 50.3458226,103.943034 51.4694204,105.127705 C52.5930181,106.312376 53.4573241,107.710288 54.0623383,109.32144 C54.6673525,110.932593 54.9698595,112.638519 54.9698595,114.439219 C54.9698595,116.239919 54.6673525,117.945845 54.0623383,119.556998 C53.4573241,121.16815 52.5930181,122.566062 51.4694204,123.750733 C50.3458226,124.935404 49.0493637,125.883141 47.5800435,126.593944 C46.1107234,127.304746 44.5549726,127.660148 42.9127913,127.660148 C41.1841794,127.660148 39.606821,127.304746 38.1807161,126.593944 C36.7546113,125.883141 35.47976,124.935404 34.3561622,123.750733 C33.2325645,122.566062 32.3682585,121.16815 31.7632443,119.556998 C31.1582301,117.945845 30.855723,116.239919 30.855723,114.439219 C30.855723,112.638519 31.1582301,110.932593 31.7632443,109.32144 C32.3682585,107.710288 33.2325645,106.312376 34.3561622,105.127705 C35.47976,103.943034 36.7546113,103.018991 38.1807161,102.355575 C39.606821,101.692159 41.1841794,101.360451 42.9127913,101.360451 L42.9127913,101.360451 Z M96.8454837,101.644772 C98.487665,101.644772 100.065023,101.97648 101.577559,102.639896 C103.090094,103.303312 104.386553,104.227355 105.466936,105.412026 C106.547318,106.596697 107.411624,107.994609 108.059854,109.605761 C108.708083,111.216914 109.032198,112.92284 109.032198,114.72354 C109.032198,116.52424 108.708083,118.230166 108.059854,119.841319 C107.411624,121.452471 106.547318,122.850383 105.466936,124.035054 C104.386553,125.219725 103.090094,126.167462 101.577559,126.878265 C100.065023,127.589067 98.487665,127.944469 96.8454837,127.944469 C95.2033023,127.944469 93.6475516,127.589067 92.1782315,126.878265 C90.7089113,126.167462 89.43406,125.219725 88.3536775,124.035054 C87.2732951,122.850383 86.4089891,121.452471 85.7607596,119.841319 C85.1125302,118.230166 84.7884154,116.52424 84.7884154,114.72354 C84.7884154,112.92284 85.1125302,111.216914 85.7607596,109.605761 C86.4089891,107.994609 87.2732951,106.596697 88.3536775,105.412026 C89.43406,104.227355 90.7089113,103.303312 92.1782315,102.639896 C93.6475516,101.97648 95.2033023,101.644772 96.8454837,101.644772 L96.8454837,101.644772 Z M118.625994,20.8975965 C121.046051,20.8975965 122.925916,21.2529978 124.265591,21.9638004 C125.605265,22.674603 126.556001,23.5512596 127.1178,24.5937701 C127.679599,25.6362805 127.938891,26.7498713 127.895676,27.9345423 C127.85246,29.1192133 127.701207,30.1380304 127.441915,30.9909935 C127.182623,31.8439566 126.642432,33.5972697 125.821341,36.2509328 C125.000251,38.9045958 124.071122,41.8188865 123.033955,44.9938048 C121.996787,48.1687231 120.981228,51.3199479 119.987276,54.4474794 C118.993324,57.5750108 118.237056,60.0391265 117.718473,61.8398265 C116.594875,65.6307737 115.16877,68.2607433 113.440158,69.7297354 C111.711546,71.1987274 109.593997,71.9332234 107.087509,71.9332234 L102.679549,71.9332234 L94.2525658,71.9332234 L83.2326647,71.9332234 L71.1755964,71.9332234 L39.0234144,71.9332234 L40.9681029,84.7276703 L106.309634,84.7276703 C110.458303,84.7276703 112.532637,86.6705307 112.532637,90.5562516 C112.532637,92.4517252 112.122092,94.0865712 111.301001,95.4607896 C110.47991,96.835008 108.859337,97.5221171 106.43928,97.5221171 L100.216277,97.5221171 L88.1592087,97.5221171 L73.2499308,97.5221171 L58.081361,97.5221171 L45.6353551,97.5221171 L38.5048309,97.5221171 C36.7762189,97.5221171 35.3285064,97.0956356 34.1616934,96.2426725 C32.9948803,95.3897093 32.0225361,94.2761186 31.2446607,92.9019002 C30.4667854,91.5276819 29.8401635,90.0349964 29.3647953,88.4238438 C28.889427,86.8126913 28.5220969,85.2963124 28.2628051,83.8747072 C28.1763745,83.3060651 27.9386904,81.9318467 27.5497527,79.7520521 C27.160815,77.5722574 26.6854468,74.8475141 26.1236479,71.5778221 C25.561849,68.3081302 24.9352272,64.6593435 24.2437824,60.631462 C23.5523376,56.6035806 22.8608928,52.5520058 22.1694481,48.4767375 C20.5272667,38.9045958 18.6690089,28.2425568 16.5946746,16.4906204 L6.87123244,16.4906204 C5.57477349,16.4906204 4.49439103,16.1352191 3.63008506,15.4244165 C2.7657791,14.7136139 2.05272667,13.8606508 1.49092779,12.8655271 C0.929128915,11.8704035 0.54019123,10.8041996 0.324114738,9.6669154 C0.108038246,8.52963124 -7.10542736e-15,7.48712075 -7.10542736e-15,6.53938395 C-7.10542736e-15,4.64391034 0.583406528,3.08014461 1.75021958,1.84808677 C2.91703264,0.616028923 4.49439103,-7.10542736e-15 6.48229476,-7.10542736e-15 L9.33450445,-7.10542736e-15 L11.9274224,-7.10542736e-15 L15.1685697,-7.10542736e-15 L19.5765302,-7.10542736e-15 C21.3051421,-7.10542736e-15 22.6880317,0.284321041 23.7251988,0.852963124 C24.762366,1.42160521 25.5834566,2.13240781 26.1884708,2.98537093 C26.793485,3.83833406 27.225638,4.73868402 27.4849298,5.68642082 C27.7442216,6.63415763 27.9602981,7.43973391 28.1331592,8.10314967 C28.3060204,8.86133912 28.4788816,9.92754302 28.6517428,11.3017614 C28.824604,12.6759798 28.9974652,14.0738915 29.1703264,15.4954967 C29.4296182,17.201423 29.68891,19.0021229 29.9482018,20.8975965 L118.625994,20.8975965 L118.625994,20.8975965 Z" id="Shape"></path>
        </g>
    </g>
</svg>

<svg width="128" height="128" xmlns="http://www.w3.org/2000/svg"><path d="M42.913 101.36c1.642 0 3.198.332 4.667.996a12.28 12.28 0 0 1 3.89 2.772c1.123 1.184 1.987 2.582 2.592 4.193.605 1.612.908 3.318.908 5.118 0 1.8-.303 3.507-.908 5.118-.605 1.611-1.469 3.01-2.593 4.194a13.3 13.3 0 0 1-3.889 2.843 10.582 10.582 0 0 1-4.667 1.066c-1.729 0-3.306-.355-4.732-1.066a13.604 13.604 0 0 1-3.825-2.843c-1.123-1.185-1.988-2.583-2.593-4.194a14.437 14.437 0 0 1-.907-5.118c0-1.8.302-3.506.907-5.118.605-1.61 1.47-3.009 2.593-4.193a12.515 12.515 0 0 1 3.825-2.772c1.426-.664 3.003-.996 4.732-.996zm53.932.285c1.643 0 3.22.331 4.733.995a11.386 11.386 0 0 1 3.889 2.772c1.08 1.185 1.945 2.583 2.593 4.194.648 1.61.972 3.317.972 5.118 0 1.8-.324 3.506-.972 5.117-.648 1.611-1.513 3.01-2.593 4.194a12.253 12.253 0 0 1-3.89 2.843 11 11 0 0 1-4.732 1.066 10.58 10.58 0 0 1-4.667-1.066 12.478 12.478 0 0 1-3.824-2.843c-1.08-1.185-1.945-2.583-2.593-4.194a13.581 13.581 0 0 1-.973-5.117c0-1.801.325-3.507.973-5.118.648-1.611 1.512-3.01 2.593-4.194a11.559 11.559 0 0 1 3.824-2.772 11.212 11.212 0 0 1 4.667-.995zm21.781-80.747c2.42 0 4.3.355 5.64 1.066 1.34.71 2.29 1.587 2.852 2.63a6.427 6.427 0 0 1 .778 3.34c-.044 1.185-.195 2.204-.454 3.057-.26.853-.8 2.606-1.62 5.26a589.268 589.268 0 0 1-2.788 8.743 1236.373 1236.373 0 0 0-3.047 9.453c-.994 3.128-1.75 5.592-2.269 7.393-1.123 3.79-2.55 6.42-4.278 7.89-1.728 1.469-3.846 2.203-6.352 2.203H39.023l1.945 12.795h65.342c4.148 0 6.223 1.943 6.223 5.828 0 1.896-.41 3.53-1.232 4.905-.821 1.374-2.442 2.061-4.862 2.061H38.505c-1.729 0-3.176-.426-4.343-1.28-1.167-.852-2.14-1.966-2.917-3.34a21.277 21.277 0 0 1-1.88-4.478 44.128 44.128 0 0 1-1.102-4.55c-.087-.568-.324-1.942-.713-4.122-.39-2.18-.865-4.904-1.426-8.174l-1.88-10.947c-.692-4.027-1.383-8.079-2.075-12.154-1.642-9.572-3.5-20.234-5.574-31.986H6.87c-1.296 0-2.377-.356-3.24-1.067a9.024 9.024 0 0 1-2.14-2.558 10.416 10.416 0 0 1-1.167-3.2C.108 8.53 0 7.488 0 6.54c0-1.896.583-3.46 1.75-4.69C2.917.615 4.494 0 6.482 0h13.095c1.728 0 3.111.284 4.148.853 1.037.569 1.858 1.28 2.463 2.132a8.548 8.548 0 0 1 1.297 2.701c.26.948.475 1.754.648 2.417.173.758.346 1.825.519 3.199.173 1.374.345 2.772.518 4.193.26 1.706.519 3.507.778 5.403h88.678z" fill-rule="evenodd"/></svg>
